_includes/icons/color-google-wallet.svg

<svg fill="#666" height="50" viewBox="0 0 48 48" width="50" xmlns="http://www.w3.org/2000/svg"><path d="m20.398438 39c-1.796875 0-3.398438-1.398437-3.5-3.300781-.699219-10.699219-9-15-9-15.097656-1.699219-.902344-2.398438-3-1.5-4.703125.902343-1.699219 3-2.398438 4.703125-1.5.5.300781 11.898437 6.300781 12.796875 20.902343.101562 1.898438-1.398438 3.597657-3.296875 3.699219 0 0-.101563 0-.203125 0z" fill="#1976d2"/><path d="m20.398438 39c-.597657 0-1.296875-.199219-1.898438-.601562-1.601562-1-2.101562-3.199219-1-4.796875 5.898438-9.101563.199219-18.902344-.101562-19.300782-1-1.699218-.5-3.800781 1.203125-4.800781 1.699218-1 3.796875-.5 4.796875 1.199219.300781.601562 8.203125 13.800781 0 26.699219-.699219 1-1.796875 1.601562-3 1.601562z" fill="#ff1744"/><path d="m34.398438 43c-2 0-3.5-1.601562-3.5-3.601562.300781-15.699219-11.898438-23.699219-12.398438-24-1.601562-1-2.101562-3.199219-1.101562-4.796875 1-1.601563 3.203125-2.101563 4.800781-1.101563.699219.398438 16 10.300781 15.601562 30 .097657 2-1.402343 3.5-3.402343 3.5z" fill="#ffc107"/><path d="m34.398438 43c-.597657 0-1.199219-.199219-1.796875-.5-1.703125-1-2.203125-3.101562-1.203125-4.800781 7.800781-13.300781 0-27.398438 0-27.5-.898438-1.699219-.398438-3.800781 1.300781-4.800781s3.800781-.398438 4.800781 1.300781c.398438.699219 9.800781 17.800781 0 34.5-.699219 1.199219-1.898437 1.800781-3.101562 1.800781z" fill="#4caf50"/></svg>

<svg xmlns="http://www.w3.org/2000/svg" viewBox="0 0 48 48" width="50" height="50" fill="#666"><path d="M 20.398438 39 C 18.601563 39 17 37.601563 16.898438 35.699219 C 16.199219 25 7.898438 20.699219 7.898438 20.601563 C 6.199219 19.699219 5.5 17.601563 6.398438 15.898438 C 7.300781 14.199219 9.398438 13.5 11.101563 14.398438 C 11.601563 14.699219 23 20.699219 23.898438 35.300781 C 24 37.199219 22.5 38.898438 20.601563 39 C 20.601563 39 20.5 39 20.398438 39 Z" fill="#1976d2"/><path d="M 20.398438 39 C 19.800781 39 19.101563 38.800781 18.5 38.398438 C 16.898438 37.398438 16.398438 35.199219 17.5 33.601563 C 23.398438 24.5 17.699219 14.699219 17.398438 14.300781 C 16.398438 12.601563 16.898438 10.5 18.601563 9.5 C 20.300781 8.5 22.398438 9 23.398438 10.699219 C 23.699219 11.300781 31.601563 24.5 23.398438 37.398438 C 22.699219 38.398438 21.601563 39 20.398438 39 Z" fill="#ff1744"/><path d="M 34.398438 43 C 32.398438 43 30.898438 41.398438 30.898438 39.398438 C 31.199219 23.699219 19 15.699219 18.5 15.398438 C 16.898438 14.398438 16.398438 12.199219 17.398438 10.601563 C 18.398438 9 20.601563 8.5 22.199219 9.5 C 22.898438 9.898438 38.199219 19.800781 37.800781 39.5 C 37.898438 41.5 36.398438 43 34.398438 43 Z" fill="#ffc107"/><path d="M 34.398438 43 C 33.800781 43 33.199219 42.800781 32.601563 42.5 C 30.898438 41.5 30.398438 39.398438 31.398438 37.699219 C 39.199219 24.398438 31.398438 10.300781 31.398438 10.199219 C 30.5 8.5 31 6.398438 32.699219 5.398438 C 34.398438 4.398438 36.5 5 37.5 6.699219 C 37.898438 7.398438 47.300781 24.5 37.5 41.199219 C 36.800781 42.398438 35.601563 43 34.398438 43 Z" fill="#4caf50"/></svg>
